public/assets/fast-withdrawl.svg

<svg fill="none" height="246" viewBox="0 0 260 246" width="260" xmlns="http://www.w3.org/2000/svg" xmlns:xlink="http://www.w3.org/1999/xlink"><filter id="a" color-interpolation-filters="sRGB" filterUnits="userSpaceOnUse" height="682" width="682" x="-231" y="-191"><feFlood flood-opacity="0" result="BackgroundImageFix"/><feBlend in="SourceGraphic" in2="BackgroundImageFix" mode="normal" result="shape"/><feGaussianBlur result="effect1_foregroundBlur_244_3251" stdDeviation="128"/></filter><linearGradient id="b"><stop offset=".15" stop-color="#2aabee"/><stop offset="1" stop-color="#0ccfcf"/></linearGradient><linearGradient id="c" gradientUnits="userSpaceOnUse" x1="25.1549" x2="194.845" xlink:href="#b" y1="144.87" y2="155.13"/><linearGradient id="d" gradientUnits="userSpaceOnUse" x1="38.1668" x2="211.874" xlink:href="#b" y1="179.082" y2="219.975"/><linearGradient id="e" gradientUnits="userSpaceOnUse" x1="97.5691" x2="161.398" xlink:href="#b" y1="147.992" y2="152.117"/><linearGradient id="f" gradientUnits="userSpaceOnUse" x1="129.318" x2="129.318" y1="120.005" y2="151.963"><stop offset="0" stop-color="#952cff"/><stop offset="1" stop-color="#952cff" stop-opacity=".2"/></linearGradient><linearGradient id="g" gradientUnits="userSpaceOnUse" x1="81.0884" x2="177.696" xlink:href="#b" y1="104.153" y2="111.573"/><linearGradient id="h" gradientUnits="userSpaceOnUse" x1="105.386" x2="123.183" y1="96.1384" y2="139.355"><stop offset="0" stop-color="#fff"/><stop offset="1" stop-color="#fff" stop-opacity="0"/></linearGradient><linearGradient id="i"><stop offset="0" stop-color="#fff"/><stop offset="1" stop-color="#fff" stop-opacity=".5"/></linearGradient><linearGradient id="j" gradientUnits="userSpaceOnUse" x1="76" x2="76" xlink:href="#i" y1="152" y2="176"/><linearGradient id="k" gradientUnits="userSpaceOnUse" x1="69.0219" x2="92.9781" xlink:href="#b" y1="89.2758" y2="90.7242"/><linearGradient id="l" gradientUnits="userSpaceOnUse" x1="171" x2="171" xlink:href="#i" y1="134" y2="150"/><g filter="url(#a)" opacity=".7"><circle cx="110" cy="150" fill="url(#c)" r="85"/></g><ellipse cx="129.5" cy="180.5" fill="url(#d)" opacity=".5" rx="91.5" ry="23.5"/><path d="m97.9299 173.958 24.5191-49.656c1.34-2.713 4.092-4.43 7.104-4.43h30.943c.823 0 1.288.95.786 1.606l-42.197 55.134c-1.501 1.962-3.824 3.111-6.285 3.111h-11.318c-2.9438 0-4.8618-3.112-3.5521-5.765z" fill="url(#e)"/><path clip-rule="evenodd" d="m148.743 120.005-23.161 28.959c-1.516 1.896-3.812 2.999-6.239 2.999h-9.449l13.671-27.522c1.35-2.717 4.122-4.436 7.156-4.436z" fill="url(#f)" fill-opacity=".44" fill-rule="evenodd"/><path d="m81.4536 138.776 34.1954-66.1472c1.382-2.6729 4.143-4.3522 7.156-4.3522h54.186c.844 0 1.314.9744.787 1.6323l-57.461 71.7121c-1.529 1.907-3.843 3.017-6.289 3.017h-28.9961c-3.0157 0-4.9611-3.187-3.5783-5.862z" fill="url(#g)"/><path clip-rule="evenodd" d="m170.894 68.2766-51.754 64.7084c-1.516 1.896-3.812 3-6.239 3h-28.7676c-.405 0-.7906-.058-1.1512-.165l32.6668-63.1912c1.382-2.6729 4.143-4.3522 7.156-4.3522z" fill="url(#h)" fill-opacity=".5" fill-rule="evenodd"/><path d="m76 152 2.1213 9.879 9.8787 2.121-9.8787 2.121-2.1213 9.879-2.1213-9.879-9.8787-2.121 9.8787-2.121z" fill="url(#j)"/><path d="m81 78 2.1213 9.8787 9.8787 2.1213-9.8787 2.1213-2.1213 9.8787-2.1213-9.8787-9.8787-2.1213 9.8787-2.1213z" fill="url(#k)"/><path d="m171 134 1.414 6.586 6.586 1.414-6.586 1.414-1.414 6.586-1.414-6.586-6.586-1.414 6.586-1.414z" fill="url(#l)"/></svg>

<svg width="260" height="246" viewBox="0 0 260 246" fill="none" xmlns="http://www.w3.org/2000/svg">
<g style="mix-blend-mode:hard-light" opacity="0.7" filter="url(#filter0_f_244_3251)">
<circle cx="110" cy="150" r="85" fill="url(#paint0_linear_244_3251)"/>
</g>
<g style="mix-blend-mode:multiply" opacity="0.5">
<ellipse cx="129.5" cy="180.5" rx="91.5" ry="23.5" fill="url(#paint1_linear_244_3251)"/>
</g>
<path d="M97.9299 173.958L122.449 124.302C123.789 121.589 126.541 119.872 129.553 119.872H160.496C161.319 119.872 161.784 120.822 161.282 121.478L119.085 176.612C117.584 178.574 115.261 179.723 112.8 179.723H101.482C98.5382 179.723 96.6202 176.611 97.9299 173.958Z" fill="url(#paint2_linear_244_3251)"/>
<path fill-rule="evenodd" clip-rule="evenodd" d="M148.743 120.005L125.582 148.964C124.066 150.86 121.77 151.963 119.343 151.963H109.894L123.565 124.441C124.915 121.724 127.687 120.005 130.721 120.005H148.743Z" fill="url(#paint3_linear_244_3251)" fill-opacity="0.44"/>
<path d="M81.4536 138.776L115.649 72.6288C117.031 69.9559 119.792 68.2766 122.805 68.2766H176.991C177.835 68.2766 178.305 69.251 177.778 69.9089L120.317 141.621C118.788 143.528 116.474 144.638 114.028 144.638H85.0319C82.0162 144.638 80.0708 141.451 81.4536 138.776Z" fill="url(#paint4_linear_244_3251)"/>
<g style="mix-blend-mode:overlay">
<path fill-rule="evenodd" clip-rule="evenodd" d="M170.894 68.2766L119.14 132.985C117.624 134.881 115.328 135.985 112.901 135.985H84.1334C83.7284 135.985 83.3428 135.927 82.9822 135.82L115.649 72.6288C117.031 69.9559 119.792 68.2766 122.805 68.2766H170.894Z" fill="url(#paint5_linear_244_3251)" fill-opacity="0.5"/>
</g>
<path d="M76 152L78.1213 161.879L88 164L78.1213 166.121L76 176L73.8787 166.121L64 164L73.8787 161.879L76 152Z" fill="url(#paint6_linear_244_3251)"/>
<path d="M81 78L83.1213 87.8787L93 90L83.1213 92.1213L81 102L78.8787 92.1213L69 90L78.8787 87.8787L81 78Z" fill="url(#paint7_linear_244_3251)"/>
<path d="M171 134L172.414 140.586L179 142L172.414 143.414L171 150L169.586 143.414L163 142L169.586 140.586L171 134Z" fill="url(#paint8_linear_244_3251)"/>
<defs>
<filter id="filter0_f_244_3251" x="-231" y="-191" width="682" height="682" filterUnits="userSpaceOnUse" color-interpolation-filters="sRGB">
<feFlood flood-opacity="0" result="BackgroundImageFix"/>
<feBlend mode="normal" in="SourceGraphic" in2="BackgroundImageFix" result="shape"/>
<feGaussianBlur stdDeviation="128" result="effect1_foregroundBlur_244_3251"/>
</filter>
<linearGradient id="paint0_linear_244_3251" x1="25.1549" y1="144.87" x2="194.845" y2="155.13" gradientUnits="userSpaceOnUse">
<stop offset="0.15" stop-color="#2AABEE"/>
<stop offset="1" stop-color="#0CCFCF"/>
</linearGradient>
<linearGradient id="paint1_linear_244_3251" x1="38.1668" y1="179.082" x2="211.874" y2="219.975" gradientUnits="userSpaceOnUse">
<stop offset="0.15" stop-color="#2AABEE"/>
<stop offset="1" stop-color="#0CCFCF"/>
</linearGradient>
<linearGradient id="paint2_linear_244_3251" x1="97.5691" y1="147.992" x2="161.398" y2="152.117" gradientUnits="userSpaceOnUse">
<stop offset="0.15" stop-color="#2AABEE"/>
<stop offset="1" stop-color="#0CCFCF"/>
</linearGradient>
<linearGradient id="paint3_linear_244_3251" x1="129.318" y1="120.005" x2="129.318" y2="151.963" gradientUnits="userSpaceOnUse">
<stop stop-color="#952CFF"/>
<stop offset="1" stop-color="#952CFF" stop-opacity="0.2"/>
</linearGradient>
<linearGradient id="paint4_linear_244_3251" x1="81.0884" y1="104.153" x2="177.696" y2="111.573" gradientUnits="userSpaceOnUse">
<stop offset="0.15" stop-color="#2AABEE"/>
<stop offset="1" stop-color="#0CCFCF"/>
</linearGradient>
<linearGradient id="paint5_linear_244_3251" x1="105.386" y1="96.1384" x2="123.183" y2="139.355" gradientUnits="userSpaceOnUse">
<stop stop-color="white"/>
<stop offset="1" stop-color="white" stop-opacity="0"/>
</linearGradient>
<linearGradient id="paint6_linear_244_3251" x1="76" y1="152" x2="76" y2="176" gradientUnits="userSpaceOnUse">
<stop stop-color="white"/>
<stop offset="1" stop-color="white" stop-opacity="0.5"/>
</linearGradient>
<linearGradient id="paint7_linear_244_3251" x1="69.0219" y1="89.2758" x2="92.9781" y2="90.7242" gradientUnits="userSpaceOnUse">
<stop offset="0.15" stop-color="#2AABEE"/>
<stop offset="1" stop-color="#0CCFCF"/>
</linearGradient>
<linearGradient id="paint8_linear_244_3251" x1="171" y1="134" x2="171" y2="150" gradientUnits="userSpaceOnUse">
<stop stop-color="white"/>
<stop offset="1" stop-color="white" stop-opacity="0.5"/>
</linearGradient>
</defs>
</svg>
